X:1
T:Title
%%score 1 2 3
L:1/8
M:3/2
K:C
V:1 treble nm="Part_1"
V:2 treble-8 nm="Part_2"
V:3 treble-8 nm="Part_3"
V:1
 C6 D2 E4 | F4 E4 D2 C2 | D6 E2 F2 E2 | G8 F4 | E6 D2 D2 C2 | E8 z4 | E8 F4 | F2 E3 D D2 C2 B,2 | %8
 D4 E2 G2 F2 E2 | G8 F4 | E2 F4 E2 D2 C2 | E8 z4 | D4 E4 F4 | G8 G4 | F4 A6 G2 | G6 ^F2 F2 E2 | %16
 G8 z4 | A8 G4 | F8 E4 | D6 C2 C2 B,2 | D8 z4 | C4 E4 F4 | G4 F4 A4 | G6 F2 F2 E2 | G8 z4 | A8 G4 | %26
 F4 E6 D2 | D6 C2 C2 B,2 | D8 z4 | C8 D4 | E4 F6 E2 | E6 D4 C2 | D6 E2 F4 | G8 G4 | %34
 F4 E2 E2 D2 C2 | E12 || c4 B4 c4 | d8 c4 | B4 A4 G4 | A8 z4 | A8 G4 | A8 B4 | A4 G4 ^F4 | G8 z4 | %44
 A4 G4 F4 | G8 E4 | F4 A6 G2 | G8 z4 | E4 D4 E4 | F8 E4 | D4 C4 B,4 | C8 z4 | C8 D4 | E4 F8 | %54
 E8 D4 | E8 z4 | C4 D4 E4 | F8 E4 | D4 C2 C4 B,2 | C8 z4 | C4 D4 E4 | G4 A4 F2 E2 | G8 E4 | %63
 F4 E2 E2 D2 C2 | E12 || c8 _B4 | A4 _B4 c4 | _B2 A3 G G2 F2 E2 | G4 z4 A4 | G4 F6 E2 | %70
 E4 D4 C2 B,2 | D8 z4 | E4 D4 C4 | D8 E4 | F4 E4 D4 | E8 z4 | E8 D4 | C4 D3 E F4 | G8 F4 | %79
 E6 D2 D2 C2 | E12 |] %81
V:2
 c8 c4 | d4 c4 B2 A2 | G8 A2 c2 | B8 A4 | G4 F8 | E12 | C8 D4 | A2 G4 F2 E4 | D2 G4 B2 A4 | G8 d4 | %10
 A6 G2 F4 | E8 E4 | B4 c4 d4 | G8 B2 c2 | d8 c4 | B4 A6 G2 | G12 | D8 E4 | F4 A4 G4 | F4 E8 | D12 | %21
 A8 A4 | G4 d4 c4 | B4 A8 | G12 | F8 G4 | A8 G4 | F4 E8 | D12 | A8 F4 | E4 D8 | C4 G2 F2 E4 | %32
 D4 F4 A4 | G4 c6 B2 | A4 G2 E2 F4 | E12 || F4 G4 A4 | G8 A4 | B2 d4 c2 B4 | A8 A4 | c8 B4 | %41
 c8 d4 | c4 B4 A4 | G12 | c4 B4 A4 | G8 c4 | d4 c8 | B12 | A4 B4 A4 | D8 G4 | F4 E4 D4 | C8 C4 | %52
 F4 A4 B4 | c4 d6 c2 | c8 B4 | c12 | c4 A4 G4 | F8 A4 | _B4 A4 G4 | C12 | F8 C4 | c8 A4 | G8 C4 | %63
 D2 A4 G2 F4 | E12 || c4 e4 d4 | A4 d4 e4 | d2 c4 _B2 A4 | G8 c4 | _B4 A8 | G4 F2 D2 E4 | D8 F4 | %72
 G4 F4 E4 | D4 F4 G4 | A4 G4 F4 | E12 | G8 F4 | E4 D4 A4 | G4 B4 A4 | G4 F8 | E12 |] %81
V:3
 C8 C4 | B,4 C4 G2 A2 | B8 c2 A2 | G4 E4 F2 D2 | E2 C2 D2 A4 A2 | B4 z4 z4 | c8 A4 | %7
 D2 E2 C2 D2 G4 | A2 B4 d2 c4 | d4 z4 z4 | z2 c4 B2 A4 | B8 B4 | G4 C2 E2 D4 | C8 z4 | D8 F4 | %15
 G4 D8 | d12- | d8 B4 | c8 B4 | A6 G2 G2 F2 | A8 A4 | z4 c4 F4 | C4 D4 F4 | G4 z2 D2 F4 | C8 z4 | %25
 c8 B2 d2 | c8 B4 | A8 G4 | A12 | F8 D4 | G4 A4 F4 | G4 E2 D2 G4 | A8 D4 | E4 C4 z2 G2 | D4 B4 A4 | %35
 B12 || f4 d4 c4 | B4 d4 e4 | d2 f4 e2 d4 | e8 e4 | e8 d4 | e4 A4 G4 | A4 E2 G2 D4 | d8 d4 | %44
 e4 d4 c4 | d8 A4 | D4 A8 | E4 z4 z4 | c4 G4 c4 | d8 B4 | A4 G4 F4 | G8 G4 | A4 F4 D4 | C4 B,8 | %54
 C6 D2 G4 | C12 | C4 z4 B4 | c8 c4 | G4 A2 F2 G2 E2 | G8 z4 | A8 G4 | C4 F6 D2 | E4 C4 z2 c2 | %63
 A2 F2 c2 B2 A4 | B12 || C8 D4 | F4 G4 E4 | F4 G4 c4 | d8 c4 | d4 D8 | E2 G2 A4 G4 | A8 c4 | %72
 B4 A4 G4 | A4 D4 C4 | F4 G4 A4 | B8 G4 | E8 A4 | G4 A4 F4 | E8 F4 | G4 A8 | B12 |] %81

